svgs/sharp-solid/rectangle-history-circle-plus.svg

<svg xmlns="http://www.w3.org/2000/svg" viewBox="0 0 640 512"><!--! Font Awesome Pro 6.6.0 by @fontawesome - https://fontawesome.com License - https://fontawesome.com/license (Commercial License) Copyright 2024 Fonticons, Inc. --><path d="M320 368c0 59.5 29.5 112.1 74.8 144L0 512 0 160l512 0 0 32.7c-5.3-.5-10.6-.7-16-.7c-97.2 0-176 78.8-176 176zM464 80l0 48L48 128l0-48 416 0zM416 0l0 48L96 48 96 0 416 0zm80 224a144 144 0 1 1 0 288 144 144 0 1 1 0-288zm16 80l0-16-32 0 0 16 0 48-48 0-16 0 0 32 16 0 48 0 0 48 0 16 32 0 0-16 0-48 48 0 16 0 0-32-16 0-48 0 0-48z"/></svg>

<svg xmlns="http://www.w3.org/2000/svg" viewBox="0 0 640 512"><!--! Font Awesome Pro 6.4.0 by @fontawesome - https://fontawesome.com License - https://fontawesome.com/license (Commercial License) Copyright 2023 Fonticons, Inc. --><path d="M320 368c0 59.5 29.5 112.1 74.8 144L0 512V160l512 0v32.7c-5.3-.5-10.6-.7-16-.7c-97.2 0-176 78.8-176 176zM464 80v48L48 128V80l416 0zM416 0V48L96 48V0H416zm80 224a144 144 0 1 1 0 288 144 144 0 1 1 0-288zm16 80V288H480v16 48H432 416v32h16 48v48 16h32V432 384h48 16V352H560 512V304z"/></svg>
